X:29
T:Stärnäegg-Juiz. 1998  C 2+
S:Sepp Herger  (* 16.1.1962)
S:Dirigenten-Notiz  Edi Gasser
%C:Unterwalden (CH)
%%partsbox
%P:ABCD
R:Naturjodel
L:1/4
K:C
M:4/4
M:4/4
"freudiger Anruf" G|c/2d/2e>ce | dc2 || 
M:4/4
[P:A] Gc/2d/2 e>d | c2Gc | e2c2 | Gg/2e/2 d>c | Bcd2 | 
GF/2G/2 e>d | edc2 | Gc/2d/2e>d | c2Gc | 
e2c2 | Gg/2e/2d>c | BG/2f/2ed | c3z || 
M:2/4
[P:B] ec | ec | d>c | B2 | G>F | ed | e2 | 
c2 | ec | ec | d>c | B2 | G>f | ed | (c2 | c)z || 
M:2/4
L:1/8
[P:C] Gc | e2 cf | e2 Gc | e2 ce | d2dc | B2Bc | d2gf | e2d2 | c2Gc | e2c2 | 
e2cd | e2eg | f2fe | d2df | e2ce | g3f | e2d2 | c4 | c2 || 
L:1/4
[P:D] e/2e/2c | e/2e/2c | d>c | B2 | G>G | e d | e2 | c2 | 
e/2e/2c | e/2e/2c | d>c | B2 | G>f | ed | (c2 | c)z |] 
W:
W:Reihenfolge: A-B-C-B-D
%W:notiert Edi Gasser, nach Angaben von Sepp
%W:UJV-Naturjodelsammlung: Code-Nr: 22-15
%W:http://www.naturjodler.ch/code 22.htm  (with AUDIO)
%May 22, 2018

